X: 131319
T: Monk's Jig
T: Port an Bhr\'athar
T: Reverend Brother's Jig
T: Did You See My Man Looking for Me
S: "Ceol Rince na hEireann" 1/21
Z: B.Black
L: 1/8
M: 6/8
R: jig
K: Ador
e/d/|cAA c2e|dcd e2e|AAA c2e|dcA A2G|
EAA c2e|dcd e2a|aba ged|cAA A2 :|
(3B/^c/d/|eaa aba|gef ged|eaa aaa|gef g3|
eaa a2a|aba ged|cde e2d|cAA A2 :|
